svgs/regular/truck-front.svg

<svg xmlns="http://www.w3.org/2000/svg" viewBox="0 0 512 512"><!--! Font Awesome Pro 6.4.2 by @fontawesome - https://fontawesome.com License - https://fontawesome.com/license (Commercial License) Copyright 2023 Fonticons, Inc. --><path d="M80 48C62.3 48 48 62.3 48 80V232c4.2-3.2 8.7-6.1 13.3-8.7l40-85.8C113.2 112.2 138.6 96 166.6 96H345.4c28 0 53.4 16.2 65.2 41.6l40 85.8c4.6 2.6 9.1 5.5 13.3 8.7V80c0-17.7-14.3-32-32-32H80zM48 328v40c0 17.7 14.3 32 32 32H432c17.7 0 32-14.3 32-32V328c0-39.8-32.2-72-72-72H120c-39.8 0-72 32.2-72 72zM0 328V80C0 35.8 35.8 0 80 0H432c44.2 0 80 35.8 80 80V328v40c0 26.2-12.6 49.4-32 64v56c0 13.3-10.7 24-24 24s-24-10.7-24-24V448H80v40c0 13.3-10.7 24-24 24s-24-10.7-24-24V432C12.6 417.4 0 394.2 0 368V328zM121.4 208H390.6l-23.4-50.1c-3.9-8.4-12.4-13.9-21.7-13.9H166.6c-9.3 0-17.8 5.4-21.7 13.9L121.4 208zM96 320a32 32 0 1 1 64 0 32 32 0 1 1 -64 0zm288-32a32 32 0 1 1 0 64 32 32 0 1 1 0-64z"/></svg>

<svg xmlns="http://www.w3.org/2000/svg" viewBox="0 0 512 512"><!--! Font Awesome Pro 6.1.1 by @fontawesome - https://fontawesome.com License - https://fontawesome.com/license (Commercial License) Copyright 2022 Fonticons, Inc. --><path d="M160 320C160 337.7 145.7 352 128 352C110.3 352 96 337.7 96 320C96 302.3 110.3 288 128 288C145.7 288 160 302.3 160 320zM352 320C352 302.3 366.3 288 384 288C401.7 288 416 302.3 416 320C416 337.7 401.7 352 384 352C366.3 352 352 337.7 352 320zM0 80C0 35.82 35.82 0 80 0H432C476.2 0 512 35.82 512 80V368C512 394.2 499.4 417.4 480 432V488C480 501.3 469.3 512 456 512C442.7 512 432 501.3 432 488V448H80V488C80 501.3 69.25 512 56 512C42.75 512 32 501.3 32 488V432C12.57 417.4 0 394.2 0 368V80zM48 80V231.1C52.23 228.8 56.67 225.9 61.3 223.3L101.3 137.6C113.2 112.2 138.6 96 166.6 96H345.4C373.4 96 398.8 112.2 410.7 137.6L450.7 223.3C455.3 225.9 459.8 228.8 464 231.1V80C464 62.33 449.7 48 432 48H79.1C62.33 48 47.1 62.33 47.1 80H48zM48 328V368C48 385.7 62.33 400 80 400H432C449.7 400 464 385.7 464 368V328C464 288.2 431.8 256 392 256H120C80.24 256 48 288.2 48 328zM121.4 208H390.6L367.2 157.9C363.2 149.4 354.8 144 345.4 144H166.6C157.2 144 148.8 149.4 144.8 157.9L121.4 208z"/></svg>
